X:3
T: Die wiedergefundene Schwester (Suedeli - Ballade)
N: Q0072B
O: Mitteleuropa, Deutschland / Frankreich, Lothringen, Forbach, Weiler
R: Ballade, Entfuehrung, Adelige als Dienstmagd, Rueckkehr
M: 3/4
L: 1/8
K: F
C2 | F4F2 | G4A2 | B6 | F4
c2 | d4c2 | B2G2A2 | B2A2G2 | G4
AB | c4AG | F4F2 | G2F2E2 | F4
F2 | B2c2d2 | c2c2GA | B2A2G2 | F4
AB | c4AG | F4F2 | G2F2E2 | F4
F2 | B2c2d2 | c2c2GA | B2A2G2 | F4

